X:255
T:Wallop the Spot
M:6/8
L:1/8
R:Jig
K:D
"D"FEF DFA|BAB "G"DAG|"D"F3 DFA|"G"BAF "A"AFE|
"D"F3 DFA|"A/C#"BAB "Bm"d3|"G"fed edB|BAF "A"AFE:|
"G"Bcd "A"eAA|fed eAA|"G"Bcd "A"ecA|BAF AFE|
"G"Bcd "A"eAA|fed efg|"G"a2 f ecA|"A"BAF AFE:|
"D"DFA dcd|"G"edc "D"dAF|"D"DFA d2A|"G"B/2c/2dB "A"AFE|
"D"DFA dcd|"G"edc "D"d2e|"D"fed edB|"G"BAF "A"AFE:|
